www/assets/images/test_icons/flags/KM.svg

<svg fill="none" height="15" viewBox="0 0 21 15" width="21" xmlns="http://www.w3.org/2000/svg" xmlns:xlink="http://www.w3.org/1999/xlink"><mask id="a" height="15" maskUnits="userSpaceOnUse" width="21" x="0" y="0"><path d="m19 0h-17c-1.10457 0-2 .89543-2 2v11c0 1.1046.89543 2 2 2h17c1.1046 0 2-.8954 2-2v-11c0-1.10457-.8954-2-2-2z" fill="#fff"/></mask><g mask="url(#a)"><path d="m19 0h-17c-1.10457 0-2 .89543-2 2v11c0 1.1046.89543 2 2 2h17c1.1046 0 2-.8954 2-2v-11c0-1.10457-.8954-2-2-2z" fill="#e3001a"/><g clip-rule="evenodd" fill-rule="evenodd"><path d="m0 0h21v4h-21z" fill="#ffc700"/><path d="m0 4h21v4h-21z" fill="#fff"/><path d="m0 11h21v4h-21z" fill="#3673c7"/><path d="m0 0 12 7.5-12 7.5z" fill="#398f2d"/><path d="m6 10.84c-.29.104-.6.16-.923.16-1.7 0-3.077-1.567-3.077-3.5s1.378-3.5 3.077-3.5c.322 0 .632.056.923.16-1.248.446-2.154 1.773-2.154 3.34s.906 2.894 2.154 3.34zm0-5.84h1v1h-1zm0 2h1v1h-1zm0 2h1v1h-1z" fill="#fff"/></g><path d="m19 .5h-17c-.82843 0-1.5.67157-1.5 1.5v11c0 .8284.67157 1.5 1.5 1.5h17c.8284 0 1.5-.6716 1.5-1.5v-11c0-.82843-.6716-1.5-1.5-1.5z" stroke="#000" stroke-opacity=".1"/></g></svg>

<svg width="21" height="15" viewBox="0 0 21 15" fill="none" xmlns="http://www.w3.org/2000/svg">
<mask id="mask0_3_119" style="mask-type:alpha" maskUnits="userSpaceOnUse" x="0" y="0" width="21" height="15">
<path d="M19 0H2C0.89543 0 0 0.89543 0 2V13C0 14.1046 0.89543 15 2 15H19C20.1046 15 21 14.1046 21 13V2C21 0.89543 20.1046 0 19 0Z" fill="white"/>
</mask>
<g mask="url(#mask0_3_119)">
<path d="M19 0H2C0.89543 0 0 0.89543 0 2V13C0 14.1046 0.89543 15 2 15H19C20.1046 15 21 14.1046 21 13V2C21 0.89543 20.1046 0 19 0Z" fill="#E3001A"/>
<path fill-rule="evenodd" clip-rule="evenodd" d="M0 0H21V4H0V0Z" fill="#FFC700"/>
<path fill-rule="evenodd" clip-rule="evenodd" d="M0 4H21V8H0V4Z" fill="white"/>
<path fill-rule="evenodd" clip-rule="evenodd" d="M0 11H21V15H0V11Z" fill="#3673C7"/>
<path fill-rule="evenodd" clip-rule="evenodd" d="M0 0L12 7.5L0 15V0Z" fill="#398F2D"/>
<path fill-rule="evenodd" clip-rule="evenodd" d="M6 10.84C5.71 10.944 5.4 11 5.077 11C3.377 11 2 9.433 2 7.5C2 5.567 3.378 4 5.077 4C5.399 4 5.709 4.056 6 4.16C4.752 4.606 3.846 5.933 3.846 7.5C3.846 9.067 4.752 10.394 6 10.84ZM6 5H7V6H6V5ZM6 7H7V8H6V7ZM6 9H7V10H6V9Z" fill="white"/>
<path d="M19 0.5H2C1.17157 0.5 0.5 1.17157 0.5 2V13C0.5 13.8284 1.17157 14.5 2 14.5H19C19.8284 14.5 20.5 13.8284 20.5 13V2C20.5 1.17157 19.8284 0.5 19 0.5Z" stroke="black" stroke-opacity="0.1"/>
</g>
</svg>
